X:119
T:Mrs Garden Of Troop. RHu.119
S:R.Hughes MS,1823,Whitchurch,Shrops.
A:Whitchurch, Shropshire
Z:Tony Weatherall 2006
M:C
L:1/8
Q:1/2=80
R:Strathspey
K:F
C|F>GFd cFdF|ECCF E/F/G/E/ CC|F>GFd cFdF|cf a/g/f/e/ f3:|
c|fcac bcac|fc b/a/g/f/ eggc|fcac bcac|df a/g/f/e/ f3c|
fcac bcac|fc b/a/g/f/ eggc|dBdf cAcf|df a/g/f/e/ f3|]

